X: 31406
T: Paddy Rafferty's Favourite
R: reel
M: 4/4
K: Gmajor
GEDE c3e|d2BG AE ~E2|GEDE c3e|deBG A2GA:|
BddB eBde|gedG AE ~E2|BddB eBdB|GABG A2GA|
BddB e2de|gedG AEEG|c3A B3A|GABG A2G2|

